images/indikatorenset/4249.svg

<?xml version="1.0" standalone="no"?><!DOCTYPE svg PUBLIC "-//W3C//DTD SVG 1.1//EN" "http://www.w3.org/Graphics/SVG/1.1/DTD/svg11.dtd"><svg xmlns:xlink="http://www.w3.org/1999/xlink" version="1.1" class="highcharts-root" style="font-family:arial;font-size:9pt;" xmlns="http://www.w3.org/2000/svg" width="485" height="415"><desc>Created with Highstock 5.0.14</desc><defs><clipPath id="highcharts-zzop80a-7"><rect x="0" y="0" width="422" height="235" fill="none"></rect></clipPath><clipPath id="highcharts-zzop80a-8"><rect x="0" y="0" width="422" height="235" fill="none"></rect></clipPath></defs><rect fill="#fbfbfb" class="highcharts-background" x="0" y="0" width="485" height="415" rx="0" ry="0"></rect><rect fill="none" class="highcharts-plot-background" x="53" y="109" width="422" height="235"></rect><g class="highcharts-label" style="cursor:pointer;" transform="translate(10,451)"><text x="0" y="0"><tspan>&gt; Indikator-Details</tspan></text></g><g class="highcharts-pane-group"></g><g class="highcharts-grid highcharts-xaxis-grid "><path fill="none" class="highcharts-grid-line" d="M 158.5 109 L 158.5 344" opacity="1"></path><path fill="none" class="highcharts-grid-line" d="M 263.5 109 L 263.5 344" opacity="1"></path><path fill="none" class="highcharts-grid-line" d="M 369.5 109 L 369.5 344" opacity="1"></path><path fill="none" class="highcharts-grid-line" d="M 474.5 109 L 474.5 344" opacity="1"></path><path fill="none" class="highcharts-grid-line" d="M 52.5 109 L 52.5 344" opacity="1"></path></g><g class="highcharts-grid highcharts-yaxis-grid "><path fill="none" stroke="#e6e6e6" stroke-width="1" class="highcharts-grid-line" d="M 53 344.5 L 475 344.5" opacity="1"></path><path fill="none" stroke="#e6e6e6" stroke-width="1" class="highcharts-grid-line" d="M 53 285.5 L 475 285.5" opacity="1"></path><path fill="none" stroke="#e6e6e6" stroke-width="1" class="highcharts-grid-line" d="M 53 227.5 L 475 227.5" opacity="1"></path><path fill="none" stroke="#e6e6e6" stroke-width="1" class="highcharts-grid-line" d="M 53 168.5 L 475 168.5" opacity="1"></path><path fill="none" stroke="#e6e6e6" stroke-width="1" class="highcharts-grid-line" d="M 53 108.5 L 475 108.5" opacity="1"></path></g><g class="highcharts-grid highcharts-yaxis-grid "></g><rect fill="none" class="highcharts-plot-border" x="53" y="109" width="422" height="235"></rect><g class="highcharts-axis highcharts-xaxis "><path fill="none" class="highcharts-axis-line" stroke="#ccd6eb" stroke-width="1" d="M 53 344.5 L 475 344.5"></path></g><g class="highcharts-axis highcharts-yaxis "><path fill="none" class="highcharts-axis-line" d="M 53 109 L 53 344"></path></g><g class="highcharts-axis highcharts-yaxis "><path fill="none" class="highcharts-axis-line" d="M 475 109 L 475 344"></path></g><g class="highcharts-series-group"><g class="highcharts-series highcharts-series-0 highcharts-column-series highcharts-color-undefined " transform="translate(53,109) scale(1 1)" clip-path="url(#highcharts-zzop80a-8)"><rect x="24" y="0" width="26" height="166" fill="#73B97C" class="highcharts-point"></rect><rect x="130" y="0" width="26" height="167" fill="#73B97C" class="highcharts-point"></rect><rect x="235" y="0" width="26" height="168" fill="#73B97C" class="highcharts-point"></rect><rect x="341" y="0" width="26" height="169" fill="#73B97C" class="highcharts-point"></rect></g><g class="highcharts-markers highcharts-series-0 highcharts-column-series highcharts-color-undefined " transform="translate(53,109) scale(1 1)" clip-path="none"></g><g class="highcharts-series highcharts-series-1 highcharts-column-series highcharts-color-undefined " transform="translate(53,109) scale(1 1)" clip-path="url(#highcharts-zzop80a-8)"><rect x="24" y="166" width="26" height="30" fill="#68AB2B" class="highcharts-point"></rect><rect x="130" y="167" width="26" height="29" fill="#68AB2B" class="highcharts-point"></rect><rect x="235" y="168" width="26" height="28" fill="#68AB2B" class="highcharts-point"></rect><rect x="341" y="169" width="26" height="27" fill="#68AB2B" class="highcharts-point"></rect></g><g class="highcharts-markers highcharts-series-1 highcharts-column-series highcharts-color-undefined " transform="translate(53,109) scale(1 1)" clip-path="none"></g><g class="highcharts-series highcharts-series-2 highcharts-column-series highcharts-color-undefined " transform="translate(53,109) scale(1 1)" clip-path="url(#highcharts-zzop80a-8)"><rect x="24" y="196" width="26" height="29" fill="#007A2F" class="highcharts-point"></rect><rect x="130" y="196" width="26" height="30" fill="#007A2F" class="highcharts-point"></rect><rect x="235" y="196" width="26" height="29" fill="#007A2F" class="highcharts-point"></rect><rect x="341" y="196" width="26" height="29" fill="#007A2F" class="highcharts-point"></rect></g><g class="highcharts-markers highcharts-series-2 highcharts-column-series highcharts-color-undefined " transform="translate(53,109) scale(1 1)" clip-path="none"></g><g class="highcharts-series highcharts-series-3 highcharts-column-series highcharts-color-undefined " transform="translate(53,109) scale(1 1)" clip-path="url(#highcharts-zzop80a-8)"><rect x="24" y="225" width="26" height="11" fill="#0A3B19" class="highcharts-point"></rect><rect x="130" y="226" width="26" height="10" fill="#0A3B19" class="highcharts-point"></rect><rect x="235" y="225" width="26" height="11" fill="#0A3B19" class="highcharts-point"></rect><rect x="341" y="225" width="26" height="11" fill="#0A3B19" class="highcharts-point"></rect></g><g class="highcharts-markers highcharts-series-3 highcharts-column-series highcharts-color-undefined " transform="translate(53,109) scale(1 1)" clip-path="none"></g><g class="highcharts-series highcharts-series-4 highcharts-column-series highcharts-color-undefined " transform="translate(53,109) scale(1 1)" clip-path="url(#highcharts-zzop80a-8)"><rect x="56" y="0" width="26" height="36" fill="#73B97C" class="highcharts-point"></rect><rect x="161" y="0" width="26" height="39" fill="#73B97C" class="highcharts-point"></rect><rect x="267" y="0" width="26" height="42" fill="#73B97C" class="highcharts-point"></rect><rect x="372" y="0" width="26" height="44" fill="#73B97C" class="highcharts-point"></rect></g><g class="highcharts-markers highcharts-series-4 highcharts-column-series highcharts-color-undefined " transform="translate(53,109) scale(1 1)" clip-path="none"></g><g class="highcharts-series highcharts-series-5 highcharts-column-series highcharts-color-undefined " transform="translate(53,109) scale(1 1)" clip-path="url(#highcharts-zzop80a-8)"><rect x="56" y="36" width="26" height="101" fill="#68AB2B" class="highcharts-point"></rect><rect x="161" y="39" width="26" height="97" fill="#68AB2B" class="highcharts-point"></rect><rect x="267" y="42" width="26" height="95" fill="#68AB2B" class="highcharts-point"></rect><rect x="372" y="44" width="26" height="93" fill="#68AB2B" class="highcharts-point"></rect></g><g class="highcharts-markers highcharts-series-5 highcharts-column-series highcharts-color-undefined " transform="translate(53,109) scale(1 1)" clip-path="none"></g><g class="highcharts-series highcharts-series-6 highcharts-column-series highcharts-color-undefined " transform="translate(53,109) scale(1 1)" clip-path="url(#highcharts-zzop80a-8)"><rect x="56" y="137" width="26" height="97" fill="#007A2F" class="highcharts-point"></rect><rect x="161" y="136" width="26" height="98" fill="#007A2F" class="highcharts-point"></rect><rect x="267" y="137" width="26" height="97" fill="#007A2F" class="highcharts-point"></rect><rect x="372" y="137" width="26" height="97" fill="#007A2F" class="highcharts-point"></rect></g><g class="highcharts-markers highcharts-series-6 highcharts-column-series highcharts-color-undefined " transform="translate(53,109) scale(1 1)" clip-path="none"></g><g class="highcharts-series highcharts-series-7 highcharts-column-series highcharts-color-undefined " transform="translate(53,109) scale(1 1)" clip-path="url(#highcharts-zzop80a-8)"><rect x="56" y="234" width="26" height="2" fill="#0A3B19" class="highcharts-point"></rect><rect x="161" y="234" width="26" height="2" fill="#0A3B19" class="highcharts-point"></rect><rect x="267" y="234" width="26" height="2" fill="#0A3B19" class="highcharts-point"></rect><rect x="372" y="234" width="26" height="2" fill="#0A3B19" class="highcharts-point"></rect></g><g class="highcharts-markers highcharts-series-7 highcharts-column-series highcharts-color-undefined " transform="translate(53,109) scale(1 1)" clip-path="none"></g></g><text x="10" text-anchor="start" class="highcharts-title" style="color:#000000;font-size:1.1em;font-weight:bold;fill:#000000;" y="20"><tspan>Bodennutzung</tspan></text><text x="10" text-anchor="start" class="highcharts-subtitle" style="color:#000000;font-size:0.9em;fill:#000000;" y="38"><tspan>Hektaren und Prozent</tspan></text><g class="highcharts-stack-labels" visibility="visible" transform="translate(53,109)"><text x="69" style="font-size:0.8em;font-weight:normal;color:#000000;fill:#000000;" text-anchor="middle" transform="translate(0,0)" y="-5"><tspan x="69" y="-5" class="highcharts-text-outline" fill="#FFFFFF" stroke="#FFFFFF" stroke-width="2px" stroke-linejoin="round" style="">BL</tspan><tspan x="69" y="-5">BL</tspan></text><text x="174" style="font-size:0.8em;font-weight:normal;color:#000000;fill:#000000;" text-anchor="middle" transform="translate(0,0)" y="-5"><tspan x="174" y="-5" class="highcharts-text-outline" fill="#FFFFFF" stroke="#FFFFFF" stroke-width="2px" stroke-linejoin="round">BL</tspan><tspan x="174" y="-5">BL</tspan></text><text x="280" style="font-size:0.8em;font-weight:normal;color:#000000;fill:#000000;" text-anchor="middle" transform="translate(0,0)" y="-5"><tspan x="280" y="-5" class="highcharts-text-outline" fill="#FFFFFF" stroke="#FFFFFF" stroke-width="2px" stroke-linejoin="round">BL</tspan><tspan x="280" y="-5">BL</tspan></text><text x="385" style="font-size:0.8em;font-weight:normal;color:#000000;fill:#000000;" text-anchor="middle" transform="translate(0,0)" y="-5"><tspan x="385" y="-5" class="highcharts-text-outline" fill="#FFFFFF" stroke="#FFFFFF" stroke-width="2px" stroke-linejoin="round">BL</tspan><tspan x="385" y="-5">BL</tspan></text><text x="37" style="font-size:0.8em;font-weight:normal;color:#000000;fill:#000000;" text-anchor="middle" transform="translate(0,0)" y="-5"><tspan x="37" y="-5" class="highcharts-text-outline" fill="#FFFFFF" stroke="#FFFFFF" stroke-width="2px" stroke-linejoin="round" style="">BS</tspan><tspan x="37" y="-5">BS</tspan></text><text x="142" style="font-size:0.8em;font-weight:normal;color:#000000;fill:#000000;" text-anchor="middle" transform="translate(0,0)" y="-5"><tspan x="142" y="-5" class="highcharts-text-outline" fill="#FFFFFF" stroke="#FFFFFF" stroke-width="2px" stroke-linejoin="round">BS</tspan><tspan x="142" y="-5">BS</tspan></text><text x="248" style="font-size:0.8em;font-weight:normal;color:#000000;fill:#000000;" text-anchor="middle" transform="translate(0,0)" y="-5"><tspan x="248" y="-5" class="highcharts-text-outline" fill="#FFFFFF" stroke="#FFFFFF" stroke-width="2px" stroke-linejoin="round">BS</tspan><tspan x="248" y="-5">BS</tspan></text><text x="353" style="font-size:0.8em;font-weight:normal;color:#000000;fill:#000000;" text-anchor="middle" transform="translate(0,0)" y="-5"><tspan x="353" y="-5" class="highcharts-text-outline" fill="#FFFFFF" stroke="#FFFFFF" stroke-width="2px" stroke-linejoin="round">BS</tspan><tspan x="353" y="-5">BS</tspan></text></g><g class="highcharts-legend" transform="translate(10,40)"><rect fill="none" class="highcharts-legend-box" rx="0" ry="0" x="0" y="0" width="439" height="57" visibility="visible"></rect><g><g><g class="highcharts-legend-item highcharts-column-series highcharts-color-undefined highcharts-series-0" transform="translate(12,7)"><text x="21" style="color:#333333;font-size:1em;font-weight:normal;cursor:pointer;fill:#333333;" text-anchor="start" y="15"><tspan>Siedlungsflächen</tspan></text><rect x="2" y="4" width="12" height="12" fill="#73B97C" class="highcharts-point"></rect></g><g class="highcharts-legend-item highcharts-column-series highcharts-color-undefined highcharts-series-1" transform="translate(144.34375,7)"><text x="21" y="15" style="color:#333333;font-size:1em;font-weight:normal;cursor:pointer;fill:#333333;" text-anchor="start"><tspan>Landwirtschaftsflächen</tspan></text><rect x="2" y="4" width="12" height="12" fill="#68AB2B" class="highcharts-point"></rect></g><g class="highcharts-legend-item highcharts-column-series highcharts-color-undefined highcharts-series-2" transform="translate(307.328125,7)"><text x="21" y="15" style="color:#333333;font-size:1em;font-weight:normal;cursor:pointer;fill:#333333;" text-anchor="start"><tspan>Bestockte Flächen</tspan></text><rect x="2" y="4" width="12" height="12" fill="#007A2F" class="highcharts-point"></rect></g><g class="highcharts-legend-item highcharts-column-series highcharts-color-undefined highcharts-series-3" transform="translate(12,26)"><text x="21" y="15" style="color:#333333;font-size:1em;font-weight:normal;cursor:pointer;fill:#333333;" text-anchor="start"><tspan>Unproduktive Flächen</tspan></text><rect x="2" y="4" width="12" height="12" fill="#0A3B19" class="highcharts-point"></rect></g></g></g></g><g class="highcharts-axis-labels highcharts-xaxis-labels "><text x="105.75" style="color:#000000;cursor:default;font-size:0.9em;fill:#000000;" text-anchor="middle" transform="translate(0,0)" y="363" opacity="1"><tspan>1982</tspan></text><text x="211.25" style="color:#000000;cursor:default;font-size:0.9em;fill:#000000;" text-anchor="middle" transform="translate(0,0)" y="363" opacity="1"><tspan>1994</tspan></text><text x="316.75" style="color:#000000;cursor:default;font-size:0.9em;fill:#000000;" text-anchor="middle" transform="translate(0,0)" y="363" opacity="1"><tspan>2006</tspan></text><text x="422.25" style="color:#000000;cursor:default;font-size:0.9em;fill:#000000;" text-anchor="middle" transform="translate(0,0)" y="363" opacity="1"><tspan>2014</tspan></text></g><g class="highcharts-axis-labels highcharts-yaxis-labels "><text x="38" style="color:#000000;cursor:default;font-size:0.9em;fill:#000000;" text-anchor="end" transform="translate(0,0)" y="349" opacity="1"><tspan>0%</tspan></text><text x="38" style="color:#000000;cursor:default;font-size:0.9em;fill:#000000;" text-anchor="end" transform="translate(0,0)" y="290" opacity="1"><tspan>25%</tspan></text><text x="38" style="color:#000000;cursor:default;font-size:0.9em;fill:#000000;" text-anchor="end" transform="translate(0,0)" y="231" opacity="1"><tspan>50%</tspan></text><text x="38" style="color:#000000;cursor:default;font-size:0.9em;fill:#000000;" text-anchor="end" transform="translate(0,0)" y="172" opacity="1"><tspan>75%</tspan></text><text x="38" style="color:#000000;cursor:default;font-size:0.9em;fill:#000000;" text-anchor="end" transform="translate(0,0)" y="114" opacity="1"><tspan>100%</tspan></text></g><g class="highcharts-axis-labels highcharts-yaxis-labels "></g><text x="10" class="highcharts-credits" text-anchor="start" style="cursor:default;color:#000000;font-size:0.8em;fill:#000000;" y="400"><tspan>Quelle: Bundesamt für Statistik</tspan></text></svg>

<svg class="highcharts-root" xmlns="http://www.w3.org/2000/svg" width="485" height="415" font-family="arial" font-size="12">
    <defs>
        <clipPath id="a">
            <path fill="none" d="M0 0h422v235H0z"/>
        </clipPath>
    </defs>
    <rect fill="#fbfbfb" class="highcharts-background" width="485" height="415" rx="0" ry="0"/>
    <path fill="none" class="highcharts-plot-background" d="M53 109h422v235H53z"/>
    <text transform="translate(10 451)" class="highcharts-label" cursor="pointer">
        <tspan>&gt; Indikator-Details</tspan>
    </text>
    <g class="highcharts-grid highcharts-xaxis-grid">
        <path fill="none" class="highcharts-grid-line" d="M158.5 109v235m105-235v235m106-235v235m105-235v235m-422-235v235"/>
    </g>
    <g class="highcharts-grid highcharts-yaxis-grid">
        <path fill="none" stroke="#e6e6e6" class="highcharts-grid-line" d="M53 344.5h422m-422-59h422m-422-58h422m-422-59h422m-422-60h422"/>
    </g>
    <path fill="none" class="highcharts-plot-border" d="M53 109h422v235H53z"/>
    <g class="highcharts-axis highcharts-xaxis">
        <path fill="none" class="highcharts-axis-line" stroke="#ccd6eb" d="M53 344.5h422"/>
    </g>
    <g class="highcharts-axis highcharts-yaxis">
        <path fill="none" class="highcharts-axis-line" d="M53 109v235"/>
    </g>
    <g class="highcharts-axis highcharts-yaxis">
        <path fill="none" class="highcharts-axis-line" d="M475 109v235"/>
    </g>
    <g class="highcharts-series-group">
        <g class="highcharts-series highcharts-series-0 highcharts-column-series highcharts-color-undefined" transform="translate(53 109)" clip-path="url(#a)">
            <path fill="#73B97C" class="highcharts-point" d="M24 0h26v166H24zm106 0h26v167h-26zm105 0h26v168h-26zm106 0h26v169h-26z"/>
        </g>
        <g class="highcharts-series highcharts-series-1 highcharts-column-series highcharts-color-undefined" transform="translate(53 109)" clip-path="url(#a)">
            <path fill="#68AB2B" class="highcharts-point" d="M24 166h26v30H24zm106 1h26v29h-26zm105 1h26v28h-26zm106 1h26v27h-26z"/>
        </g>
        <g class="highcharts-series highcharts-series-2 highcharts-column-series highcharts-color-undefined" transform="translate(53 109)" clip-path="url(#a)">
            <path fill="#007A2F" class="highcharts-point" d="M24 196h26v29H24zm106 0h26v30h-26zm105 0h26v29h-26zm106 0h26v29h-26z"/>
        </g>
        <g class="highcharts-series highcharts-series-3 highcharts-column-series highcharts-color-undefined" transform="translate(53 109)" clip-path="url(#a)">
            <path fill="#0A3B19" class="highcharts-point" d="M24 225h26v11H24zm106 1h26v10h-26zm105-1h26v11h-26zm106 0h26v11h-26z"/>
        </g>
        <g class="highcharts-series highcharts-series-4 highcharts-column-series highcharts-color-undefined" transform="translate(53 109)" clip-path="url(#a)">
            <path fill="#73B97C" class="highcharts-point" d="M56 0h26v36H56zm105 0h26v39h-26zm106 0h26v42h-26zm105 0h26v44h-26z"/>
        </g>
        <g class="highcharts-series highcharts-series-5 highcharts-column-series highcharts-color-undefined" transform="translate(53 109)" clip-path="url(#a)">
            <path fill="#68AB2B" class="highcharts-point" d="M56 36h26v101H56zm105 3h26v97h-26zm106 3h26v95h-26zm105 2h26v93h-26z"/>
        </g>
        <g class="highcharts-series highcharts-series-6 highcharts-column-series highcharts-color-undefined" transform="translate(53 109)" clip-path="url(#a)">
            <path fill="#007A2F" class="highcharts-point" d="M56 137h26v97H56zm105-1h26v98h-26zm106 1h26v97h-26zm105 0h26v97h-26z"/>
        </g>
        <g class="highcharts-series highcharts-series-7 highcharts-column-series highcharts-color-undefined" transform="translate(53 109)" clip-path="url(#a)">
            <path fill="#0A3B19" class="highcharts-point" d="M56 234h26v2H56zm105 0h26v2h-26zm106 0h26v2h-26zm105 0h26v2h-26z"/>
        </g>
    </g>
    <text x="10" class="highcharts-title" y="20" color="#000" font-size="1.1em" font-weight="700">
        <tspan>Bodennutzung</tspan>
    </text>
    <text x="10" class="highcharts-subtitle" y="38" color="#000" font-size=".9em">
        <tspan>Hektaren und Prozent</tspan>
    </text>
    <g class="highcharts-stack-labels" text-anchor="middle" font-size=".8em" font-weight="400" color="#000">
        <text x="69" y="-5" transform="translate(53 109)">
            <tspan x="69" y="-5" class="highcharts-text-outline" fill="#FFF" stroke="#FFF" stroke-width="2" stroke-linejoin="round">BL</tspan><tspan x="69" y="-5">BL</tspan>
        </text>
        <text x="174" y="-5" transform="translate(53 109)">
            <tspan x="174" y="-5" class="highcharts-text-outline" fill="#FFF" stroke="#FFF" stroke-width="2" stroke-linejoin="round">BL</tspan><tspan x="174" y="-5">BL</tspan>
        </text>
        <text x="280" y="-5" transform="translate(53 109)">
            <tspan x="280" y="-5" class="highcharts-text-outline" fill="#FFF" stroke="#FFF" stroke-width="2" stroke-linejoin="round">BL</tspan><tspan x="280" y="-5">BL</tspan>
        </text>
        <text x="385" y="-5" transform="translate(53 109)">
            <tspan x="385" y="-5" class="highcharts-text-outline" fill="#FFF" stroke="#FFF" stroke-width="2" stroke-linejoin="round">BL</tspan><tspan x="385" y="-5">BL</tspan>
        </text>
        <text x="37" y="-5" transform="translate(53 109)">
            <tspan x="37" y="-5" class="highcharts-text-outline" fill="#FFF" stroke="#FFF" stroke-width="2" stroke-linejoin="round">BS</tspan><tspan x="37" y="-5">BS</tspan>
        </text>
        <text x="142" y="-5" transform="translate(53 109)">
            <tspan x="142" y="-5" class="highcharts-text-outline" fill="#FFF" stroke="#FFF" stroke-width="2" stroke-linejoin="round">BS</tspan><tspan x="142" y="-5">BS</tspan>
        </text>
        <text x="248" y="-5" transform="translate(53 109)">
            <tspan x="248" y="-5" class="highcharts-text-outline" fill="#FFF" stroke="#FFF" stroke-width="2" stroke-linejoin="round">BS</tspan><tspan x="248" y="-5">BS</tspan>
        </text>
        <text x="353" y="-5" transform="translate(53 109)">
            <tspan x="353" y="-5" class="highcharts-text-outline" fill="#FFF" stroke="#FFF" stroke-width="2" stroke-linejoin="round">BS</tspan><tspan x="353" y="-5">BS</tspan>
        </text>
    </g>
    <g class="highcharts-legend" transform="translate(10 40)">
        <rect fill="none" class="highcharts-legend-box" rx="0" ry="0" width="439" height="57"/>
        <g class="highcharts-legend-item highcharts-column-series highcharts-color-undefined highcharts-series-0">
            <text x="21" y="15" color="#333" font-size="1em" font-weight="400" cursor="pointer" fill="#333" transform="translate(12 7)">
                <tspan>Siedlungsflächen</tspan>
            </text>
            <path fill="#73B97C" class="highcharts-point" d="M14 11h12v12H14z"/>
        </g>
        <g class="highcharts-legend-item highcharts-column-series highcharts-color-undefined highcharts-series-1">
            <text x="21" y="15" color="#333" font-size="1em" font-weight="400" cursor="pointer" fill="#333" transform="translate(144.344 7)">
                <tspan>Landwirtschaftsflächen</tspan>
            </text>
            <path fill="#68AB2B" class="highcharts-point" d="M146.344 11h12v12h-12z"/>
        </g>
        <g class="highcharts-legend-item highcharts-column-series highcharts-color-undefined highcharts-series-2">
            <text x="21" y="15" color="#333" font-size="1em" font-weight="400" cursor="pointer" fill="#333" transform="translate(307.328 7)">
                <tspan>Bestockte Flächen</tspan>
            </text>
            <path fill="#007A2F" class="highcharts-point" d="M309.328 11h12v12h-12z"/>
        </g>
        <g class="highcharts-legend-item highcharts-column-series highcharts-color-undefined highcharts-series-3">
            <text x="21" y="15" color="#333" font-size="1em" font-weight="400" cursor="pointer" fill="#333" transform="translate(12 26)">
                <tspan>Unproduktive Flächen</tspan>
            </text>
            <path fill="#0A3B19" class="highcharts-point" d="M14 30h12v12H14z"/>
        </g>
    </g>
    <g class="highcharts-axis-labels highcharts-xaxis-labels" text-anchor="middle" color="#000" cursor="default" font-size=".9em">
        <text x="105.75" y="363">
            <tspan>1982</tspan>
        </text>
        <text x="211.25" y="363">
            <tspan>1994</tspan>
        </text>
        <text x="316.75" y="363">
            <tspan>2006</tspan>
        </text>
        <text x="422.25" y="363">
            <tspan>2014</tspan>
        </text>
    </g>
    <g class="highcharts-axis-labels highcharts-yaxis-labels" text-anchor="end" color="#000" cursor="default" font-size=".9em">
        <text x="38" y="349">
            <tspan>0%</tspan>
        </text>
        <text x="38" y="290">
            <tspan>25%</tspan>
        </text>
        <text x="38" y="231">
            <tspan>50%</tspan>
        </text>
        <text x="38" y="172">
            <tspan>75%</tspan>
        </text>
        <text x="38" y="114">
            <tspan>100%</tspan>
        </text>
    </g>
    <text x="10" class="highcharts-credits" y="400" cursor="default" color="#000" font-size=".8em">
        <tspan>Quelle: Bundesamt für Statistik</tspan>
    </text>
</svg>
